X:15
T: Croton Dam
C: J.Madden
Z: B.Black
R: reel
M: 4/4
L: 1/8
K: D
d2 fe dB B2|AF F2 DF F2|dffe defg|afeg fBBA |
d2 fe dB B2|AF F2 AB d2|f2 ec dBAF|GAEA D4 :|
a2 af ge e2|fedf eA (3AAA|abaf g2 ag|faeg fd d2 |
a2 af ge e2|fedf eA (3AAA|(3Bcd ef geag |faef d4 :|
